X:66
T: ACH JUNGFER ICH WILL IHR WAS AUFZURATHEN
N: E1064
O: Europa, Mitteleuropa, Deutschland, Schwedt a.d. Oder
R: Raetsel - Lied
M: 2/4
L: 1/16
K: G
D2 | G3GG2G2 | G6
A2 | B3BB2B2 | B4A2
G2 | B3AB2c2 | d4g2
d2 | c4c4 | B4z4 |
d4d2d2 | e6
d2 | c3Bc2e2 | d6
c2 | B4B2d2 | d3cB2
A2 | B4A4 | G4z4 |
d4d2d2 | e6
d2 | c3Bc2e2 | d6
c2 | B4B2d2 | d3cB2
A2 | B4A4 | G4z2

@@@ Tune index: 4750
